dist/img/viber.svg

<svg width="29" height="29" viewBox="0 0 29 29" fill="none" xmlns="http://www.w3.org/2000/svg">
<path d="M14.1671 1.74034C13.3764 1.74487 12.5834 1.79244 11.7836 1.88987C10.2543 2.07791 8.73863 2.39057 7.28409 3.05893C4.97089 4.12151 3.33058 5.92494 2.8548 8.54627C2.65316 9.6519 2.49003 10.7734 2.39714 11.9017C2.21816 14.0925 2.32917 16.2902 2.94995 18.4493C3.43933 20.1508 4.34105 21.6801 5.92019 22.6724C6.58855 23.0916 7.46987 23.2955 7.9298 23.5085C8.05894 23.5696 8.09066 23.6059 8.09745 23.6149C8.10425 23.6217 8.12238 23.6376 8.12011 23.7735C8.10425 25.1601 8.12011 27.8426 8.12011 27.8426L8.12238 28.4203H9.15777L9.32542 28.2572C9.32542 28.2572 11.9558 25.7265 12.9074 24.6843C13.0796 24.4985 13.1679 24.3943 13.186 24.383C13.2019 24.3717 13.1747 24.3649 13.3514 24.3603C14.5998 24.3354 15.8459 24.2878 17.092 24.2199C18.7346 24.1292 20.4089 23.9729 22.0197 23.3C23.4221 22.7132 24.5935 21.7549 25.3026 20.3185C26.0276 18.8458 26.415 17.2848 26.56 15.6694C26.8002 12.9801 26.7164 10.2863 25.9732 7.63096C25.536 6.07448 24.6569 4.75815 23.3089 3.82924C21.6957 2.71909 19.8764 2.30221 18.0957 2.03713C17.0557 1.88307 16.009 1.78112 14.9578 1.7494C14.695 1.7426 14.4321 1.73807 14.1671 1.74034ZM14.926 2.9094C15.9252 2.93659 16.9243 3.03401 17.9257 3.18354C19.6431 3.43955 21.263 3.82924 22.6518 4.78534C23.7778 5.56018 24.4802 6.6069 24.8563 7.94135C25.5496 10.4245 25.6379 12.9688 25.4046 15.5674C25.2709 17.065 24.9152 18.4765 24.2604 19.8064C23.6827 20.98 22.781 21.7254 21.5711 22.2306C20.1664 22.8174 18.6394 22.9738 17.0308 23.0621C15.7983 23.1301 14.5635 23.1754 13.3288 23.2003C13.0184 23.2071 12.7148 23.2887 12.4996 23.4473C12.2843 23.6059 12.1869 23.7531 12.0532 23.8981C11.3735 24.6413 10.0187 25.9485 9.28011 26.6645C9.27558 25.799 9.26878 24.7523 9.28011 23.7871C9.28464 23.4903 9.21667 23.1867 9.04675 22.9466C8.87683 22.7064 8.64347 22.5614 8.41917 22.4572C7.76441 22.1536 6.908 21.9225 6.53644 21.6892C5.23823 20.8735 4.50191 19.6501 4.06464 18.1276C3.49144 16.1361 3.38269 14.0857 3.55261 11.9991C3.64323 10.9161 3.79956 9.83088 3.99667 8.75471C4.40902 6.48682 5.70495 5.05948 7.76667 4.11244C9.06941 3.51432 10.4605 3.21979 11.9264 3.0408C12.9255 2.91846 13.9246 2.87994 14.926 2.9094ZM15.1707 5.80033C14.6927 5.80033 14.2282 5.85471 13.7774 5.9544C13.467 6.0269 13.2699 6.33729 13.3401 6.64994C13.4103 6.9626 13.723 7.15744 14.0357 7.08721C14.4004 7.00338 14.781 6.96033 15.1707 6.96033C18.0028 6.96033 20.2865 9.24408 20.2865 12.0738C20.2865 12.4658 20.2435 12.8464 20.1596 13.2135C20.0894 13.5238 20.2843 13.8365 20.5969 13.9067C20.9096 13.977 21.22 13.7799 21.2902 13.4672C21.3921 13.0186 21.4465 12.5542 21.4465 12.0738C21.4465 8.61651 18.6303 5.80033 15.1707 5.80033ZM9.38433 6.9626C9.28917 6.95807 9.19175 6.96487 9.0898 6.98752C8.03628 7.22088 6.98956 7.9844 6.96011 9.3483C6.98956 9.53862 6.9873 9.74252 7.05753 9.91471C7.40191 10.7575 7.70097 11.6275 8.13144 12.425C10.2271 16.2992 13.3968 18.9931 17.4364 20.7036C17.9189 20.9075 18.4174 20.9506 18.9045 20.7467C19.5751 20.468 20.1438 20.0375 20.5221 19.419C21.041 18.5694 21.0478 17.9803 20.1936 17.3528C19.634 16.9404 19.0835 16.5167 18.5171 16.1135C17.6539 15.5017 16.7204 15.3953 16.077 16.4692C16.043 16.5235 15.9932 16.5688 15.9501 16.6142C15.6193 16.9653 15.2138 17.0514 14.7833 16.8747C13.1498 16.2018 11.8878 15.1166 11.1266 13.5012C10.678 12.5519 10.8003 12.0761 11.6386 11.444C11.7225 11.3828 11.8018 11.3171 11.8788 11.2469C12.2458 10.9116 12.3432 10.5128 12.1257 10.062C11.6341 9.03338 10.9793 8.1158 10.1501 7.3251C9.92581 7.11213 9.6698 6.97846 9.38433 6.9626ZM15.1617 7.54033C14.9057 7.54033 14.6519 7.56072 14.4027 7.60377C14.192 7.63096 14.013 7.77143 13.936 7.96854C13.8589 8.16791 13.8975 8.39221 14.0334 8.55533C14.1716 8.71619 14.3891 8.79096 14.5975 8.74565C14.7788 8.71619 14.9691 8.70033 15.1617 8.70033C17.0467 8.70033 18.5601 10.2138 18.5601 12.0988C18.5601 12.2914 18.5443 12.4817 18.5148 12.6629C18.4695 12.8714 18.5443 13.0888 18.7051 13.2271C18.8682 13.363 19.0925 13.4015 19.2919 13.3245C19.489 13.2474 19.6295 13.0685 19.6567 12.8578C19.6997 12.6085 19.7201 12.3548 19.7201 12.0988C19.7201 9.58846 17.672 7.54033 15.1617 7.54033ZM15.0801 9.28033C14.8717 9.27807 14.6768 9.38682 14.5703 9.56807C14.4661 9.74932 14.4661 9.97135 14.5703 10.1526C14.6768 10.3338 14.8717 10.4426 15.0801 10.4403C16.0475 10.4403 16.8201 11.2129 16.8201 12.1803C16.8178 12.3888 16.9266 12.5836 17.1078 12.6901C17.2891 12.7943 17.5111 12.7943 17.6924 12.6901C17.8736 12.5836 17.9824 12.3888 17.9801 12.1803C17.9801 10.5853 16.6751 9.28033 15.0801 9.28033Z" fill="#5C4CBB"/>
</svg>

<svg width="29" height="29" fill="none" xmlns="http://www.w3.org/2000/svg"><path d="M14.167 1.74c-.79.005-1.584.052-2.383.15-1.53.188-3.045.5-4.5 1.169-2.313 1.063-3.953 2.866-4.43 5.487a34.517 34.517 0 00-.457 3.356c-.179 2.19-.068 4.388.553 6.547.49 1.702 1.391 3.231 2.97 4.223.669.42 1.55.623 2.01.837.129.06.16.097.167.106.007.007.025.023.023.159-.016 1.386 0 4.069 0 4.069l.002.577h1.036l.167-.163s2.63-2.53 3.582-3.573c.173-.186.26-.29.279-.301.016-.011-.011-.018.165-.023 1.249-.025 2.495-.072 3.741-.14 1.643-.09 3.317-.247 4.928-.92 1.402-.587 2.573-1.545 3.283-2.982.725-1.472 1.112-3.033 1.257-4.649.24-2.689.156-5.383-.587-8.038-.437-1.557-1.316-2.873-2.664-3.802-1.613-1.11-3.433-1.527-5.213-1.792a26.964 26.964 0 00-3.138-.288 22.92 22.92 0 00-.79-.009zm.759 1.17c1 .027 1.998.124 3 .274 1.717.256 3.337.645 4.726 1.601 1.126.775 1.828 1.822 2.204 3.156.694 2.484.782 5.028.549 7.626-.134 1.498-.49 2.91-1.145 4.24-.577 1.173-1.479 1.918-2.689 2.424-1.405.586-2.932.743-4.54.831a106.02 106.02 0 01-3.702.138c-.31.007-.614.089-.83.247-.215.159-.312.306-.446.451-.68.743-2.034 2.05-2.773 2.767-.004-.866-.011-1.913 0-2.878.005-.297-.063-.6-.233-.84s-.404-.386-.628-.49c-.655-.303-1.511-.535-1.883-.768-1.298-.816-2.034-2.039-2.471-3.561-.574-1.992-.682-4.042-.512-6.129a33.43 33.43 0 01.444-3.244c.412-2.268 1.708-3.696 3.77-4.643 1.302-.598 2.693-.892 4.16-1.071a19.792 19.792 0 012.999-.132zm.245 2.89c-.478 0-.943.055-1.394.154a.581.581 0 00.258 1.133 5.066 5.066 0 011.136-.127 5.107 5.107 0 015.116 5.114c0 .392-.043.772-.127 1.14a.58.58 0 101.13.253 6.26 6.26 0 00.157-1.393c0-3.457-2.817-6.274-6.276-6.274zM9.384 6.963a1.103 1.103 0 00-.294.025c-1.054.233-2.1.996-2.13 2.36.03.19.027.395.098.567.344.843.643 1.713 1.073 2.51 2.096 3.874 5.266 6.568 9.305 8.279.483.203.981.247 1.468.043.671-.279 1.24-.71 1.618-1.328.519-.85.526-1.439-.328-2.066-.56-.413-1.11-.836-1.677-1.24-.863-.611-1.797-.718-2.44.356-.034.054-.084.1-.127.145-.33.351-.736.437-1.167.26-1.633-.672-2.895-1.757-3.656-3.373-.449-.95-.327-1.425.512-2.057.084-.061.163-.127.24-.197.367-.335.464-.734.247-1.185a9.274 9.274 0 00-1.976-2.737c-.224-.213-.48-.347-.766-.362zm5.778.577c-.256 0-.51.02-.76.064a.581.581 0 00-.369.951.583.583 0 00.565.19c.18-.029.371-.045.564-.045a3.388 3.388 0 013.398 3.4c0 .192-.016.383-.045.564a.584.584 0 00.19.564.582.582 0 00.952-.37 4.568 4.568 0 00-4.495-5.317zm-.082 1.74a.584.584 0 00-.51.288.586.586 0 000 .585c.107.18.302.29.51.287.967 0 1.74.773 1.74 1.74a.583.583 0 00.288.51.586.586 0 00.584 0 .583.583 0 00.288-.51c0-1.595-1.305-2.9-2.9-2.9z" fill="#5C4CBB"/></svg>
